static/img/menus/ico-tip.svg

<svg width="16" height="16" viewBox="0 0 16 16" fill="none" xmlns="http://www.w3.org/2000/svg">
<g clip-path="url(#clip0_1650_137)">
<path d="M8.00005 15.2C11.9765 15.2 15.2 11.9765 15.2 8.00005C15.2 4.0236 11.9765 0.800049 8.00005 0.800049C4.0236 0.800049 0.800049 4.0236 0.800049 8.00005C0.800049 11.9765 4.0236 15.2 8.00005 15.2Z" fill="#06C5A4"/>
<path d="M7.42475 11.7904C7.35526 11.7394 7.29871 11.6729 7.25966 11.596C7.22062 11.5192 7.20016 11.4342 7.19995 11.348C7.20021 11.2996 7.20557 11.2513 7.21595 11.204C7.24866 11.072 7.32164 10.9535 7.42475 10.8648C7.59384 10.7492 7.7952 10.6901 7.99995 10.696C8.20024 10.689 8.39719 10.7487 8.55995 10.8656C8.66742 10.9475 8.74591 11.0616 8.78395 11.1912C8.79132 11.2034 8.79672 11.2166 8.79995 11.2304V11.348C8.79888 11.4357 8.77646 11.5218 8.73464 11.5989C8.69283 11.676 8.63287 11.7417 8.55995 11.7904C8.51607 11.8347 8.46752 11.8742 8.41515 11.908C8.28618 11.9717 8.14374 12.0033 7.99995 12C7.78878 12.0044 7.58362 11.9296 7.42475 11.7904ZM7.42475 9.82404C7.35485 9.76854 7.29834 9.69801 7.25942 9.61768C7.22051 9.53735 7.20018 9.44929 7.19995 9.36004V3.88804C7.20012 3.79224 7.2201 3.69751 7.25865 3.60981C7.2972 3.52211 7.35348 3.44333 7.42395 3.37844C7.59134 3.25771 7.79363 3.19505 7.99995 3.20004C8.20155 3.19357 8.39925 3.25655 8.55995 3.37844C8.67966 3.47585 8.764 3.60995 8.79995 3.76004V9.36004C8.79953 9.4513 8.77757 9.54118 8.73587 9.62236C8.69416 9.70354 8.63389 9.77374 8.55995 9.82724C8.51647 9.87385 8.4679 9.91545 8.41515 9.95124C8.28685 10.018 8.14371 10.051 7.99915 10.0472C7.78575 10.0501 7.58034 9.97012 7.42475 9.82404Z" fill="white"/>
</g>
<defs>
<clipPath id="clip0_1650_137">
<rect width="16" height="16" fill="white"/>
</clipPath>
</defs>
</svg>

<svg xmlns="http://www.w3.org/2000/svg" width="16" height="16" fill="none" viewBox="0 0 16 16"><g clip-path="url(#a)"><path fill="#06c5a4" d="M8 15.2A7.2 7.2 0 1 0 8 .8a7.2 7.2 0 0 0 0 14.4"/><path fill="#fff" d="M7.425 11.79a.55.55 0 0 1-.225-.442.7.7 0 0 1 .016-.144.66.66 0 0 1 .209-.34.97.97 0 0 1 .575-.168c.2-.007.397.053.56.17a.63.63 0 0 1 .224.325.1.1 0 0 1 .016.04v.117a.54.54 0 0 1-.24.442 1 1 0 0 1-.145.118A.9.9 0 0 1 8 12a.85.85 0 0 1-.575-.21m0-1.966A.6.6 0 0 1 7.2 9.36V3.888a.7.7 0 0 1 .224-.51A.95.95 0 0 1 8 3.2a.88.88 0 0 1 .56.178c.12.098.204.232.24.382v5.6a.58.58 0 0 1-.24.467 1 1 0 0 1-.145.124.85.85 0 0 1-.416.096.82.82 0 0 1-.574-.223"/></g><defs><clipPath id="a"><path fill="#fff" d="M0 0h16v16H0z"/></clipPath></defs></svg>
